build/images/logo 1.svg

<svg width="230" height="133" viewBox="0 0 230 133" fill="none" xmlns="http://www.w3.org/2000/svg">
<g clip-path="url(#clip0)">
<path fill-rule="evenodd" clip-rule="evenodd" d="M67.2928 66.2288C67.2928 62.8156 64.8479 60.9033 60.4446 60.9033H58.3367V71.7431C58.6379 71.8186 60.0677 72.1566 61.4218 72.1566C65.149 72.1546 67.2928 70.0176 67.2928 66.2288ZM58.3367 59.0645H59.954C63.416 59.0645 65.6735 57.6769 65.6735 54.4506C65.6755 51.4132 64.0561 49.9879 60.5942 49.9879C59.8045 49.9879 58.4883 50.2503 58.3367 50.288V59.0645ZM53.9734 54.713C53.9734 50.3258 53.4449 48.9383 51 48.0378V48H60.2572C67.0674 48 70.1146 50.137 70.1146 54.3393C70.1146 57.0031 68.0087 59.0645 64.7721 59.5535C68.6847 59.7026 71.7718 62.1039 71.7718 66.193C71.7718 70.9559 68.1961 73.5441 63.3801 74.1067C62.4767 74.22 61.5733 74.2578 60.5583 74.2578H53.9734V54.713Z" fill="white"/>
<path fill-rule="evenodd" clip-rule="evenodd" d="M83.7391 53.1764L80.1654 64.054H87.4284L83.7789 53.1764H83.7391ZM95.9676 74.2558H91.1137L88.254 66.3043H79.4495L76.7015 74.2558H73.6543L80.9152 53.9636C81.33 52.8762 81.6312 51.5623 81.6312 50.7373C81.6312 49.312 80.9152 48.5248 79.4116 48.0378V48H86.184L95.9676 74.2558Z" fill="white"/>
<path fill-rule="evenodd" clip-rule="evenodd" d="M102.592 54.713C102.592 50.3238 101.803 48.9363 99.3557 48.0358V48H106.958V74.2558H102.592V54.713Z" fill="white"/>
<path fill-rule="evenodd" clip-rule="evenodd" d="M116.253 54.713C116.253 50.3238 115.463 48.9363 113.016 48.0358V48H120.618V60.9033L131.341 48H134.879L126.487 57.9016L136.572 74.2558H131.191L123.478 60.9788L120.616 64.5788V74.2558H116.251V54.713H116.253Z" fill="white"/>
<path fill-rule="evenodd" clip-rule="evenodd" d="M148.086 53.1764L144.513 64.054H151.776L148.126 53.1764H148.086ZM160.315 74.2558H155.461L152.601 66.3043H143.797L141.049 74.2558H138.002L145.265 53.9636C145.677 52.8762 145.979 51.5623 145.979 50.7373C145.979 49.312 145.265 48.5248 143.759 48.0378V48H150.531L160.315 74.2558Z" fill="white"/>
<path fill-rule="evenodd" clip-rule="evenodd" d="M165.438 74.2558V54.715C165.438 50.3258 164.649 48.9383 162.202 48.0378V48H169.804V71.8544C170.029 71.8544 171.233 72.1546 172.438 72.1546H172.853H173.567C178.195 72.1546 179.362 70.5424 179.964 68.7037H180.002C180.002 70.5782 180.002 72.3792 180.002 74.2558H165.438Z" fill="white"/>
<path d="M174.6 54.0312H175.092V53.411H177.976V52.5661L175.026 50.3636H174.6V52.58H172.905V53.411H174.6V54.0312ZM175.094 51.0136L177.26 52.58H175.094V51.0136ZM177.623 56.3868C177.623 56.9494 177.312 57.2396 176.789 57.2396C176.145 57.2396 175.818 56.8778 175.818 56.1065V55.9614H175.413C175.413 56.9354 175.32 57.5219 174.53 57.5219C173.668 57.5219 173.283 56.8639 173.283 55.7308V55.1364H172.907V55.7288C172.907 57.5338 173.479 58.3945 174.536 58.3945C175.296 58.3945 175.724 57.7743 175.708 56.9573H175.716C175.774 57.6292 176.355 58.0904 176.869 58.0904C177.703 58.0904 178.066 57.4762 178.066 56.524C178.066 56.1045 177.914 55.5559 177.733 55.21H177.051V55.2239C177.368 55.534 177.623 56.0031 177.623 56.3868ZM172.811 61.0364C172.811 62.4438 174.145 62.8931 175.637 62.8931C177.07 62.8931 178.064 62.3365 178.064 61.0364C178.064 59.7284 177.07 59.1738 175.637 59.1738C174.145 59.1738 172.811 59.629 172.811 61.0364ZM177.659 61.0364C177.659 61.7083 176.847 62.0105 175.623 62.0105C174.406 62.0105 173.218 61.8654 173.218 61.0364C173.218 60.1995 174.406 60.0544 175.623 60.0544C176.847 60.0544 177.659 60.3586 177.659 61.0364ZM176.6 65.0519V63.6723H176.592C176.518 64.0401 176.273 64.1713 175.99 64.1276L172.903 63.6723V64.1494L175.742 64.547V64.555L172.903 65.7676V66.2009L175.742 67.4354V67.4433L172.903 67.7972V68.6559L176.598 68.1212V66.7913H176.59C176.538 67 176.422 67.1153 176.293 67.1153C176.199 67.1153 176.103 67.1014 176.018 67.0656L173.953 66.1711V66.1631L176.6 65.0519Z" fill="white"/>
<path d="M57.3895 80.5056V79.9649H53.9734V85.6323H54.5796V80.5076H57.3895V80.5056ZM61.9004 85.6303V79.9649H58.7715V82.2649C58.7715 84.6205 58.2689 85.0896 57.565 85.0896H57.4134V85.6303H57.7006C58.7854 85.6303 59.3618 84.8352 59.3618 82.4458V80.5036H61.2942V85.6284H61.9004V85.6303ZM67.0096 79.9649H66.3635L64.9815 83.3165L63.4479 79.9649H62.8018L64.6784 83.9923L64.447 84.5251C64.2795 84.9147 64.0881 85.0896 63.6972 85.0896H63.3382V85.6303H63.8328C64.3992 85.6303 64.7262 85.2646 64.9516 84.7457L67.0096 79.9649ZM71.8017 83.9685C71.8017 82.9666 71.1157 82.2967 70.0528 82.2967H68.5112V80.5056H71.4487V79.9649H67.905V85.6323H70.0528C71.1137 85.6303 71.8017 84.9624 71.8017 83.9685ZM71.1935 83.9685C71.1935 84.6762 70.7547 85.0916 69.9949 85.0916H68.5092V82.8394H69.9949C70.7547 82.8374 71.1935 83.2509 71.1935 83.9685ZM77.214 85.6303V79.9649H76.6397L73.7501 84.5808V79.9649H73.1438V85.6323H73.7181L76.6078 81.0086V85.6323H77.214V85.6303ZM82.7699 85.6303V79.9649H82.1637V82.5034H79.4655V79.9649H78.8592V85.6323H79.4655V83.0461H82.1637V85.6323H82.7699V85.6303ZM88.3278 85.6303V79.9649H87.7216V82.5034H85.0214V79.9649H84.4151V85.6323H85.0214V83.0461H87.7196V85.6323H88.3278V85.6303ZM93.9315 85.6303L91.8476 79.9629H91.3371L89.2451 85.6303H89.8913L90.3459 84.3482H92.8287L93.2834 85.6303H93.9315ZM92.6553 83.8254H90.5314L91.6003 80.8336L92.6553 83.8254ZM96.4223 83.2986H97.8283V85.6303H98.4345V79.9649H96.3186C95.2657 79.9649 94.5617 80.6169 94.5617 81.6288C94.5617 82.4398 95.0324 83.0302 95.7842 83.2131L94.474 85.6323H95.1839L96.4223 83.2986ZM97.8283 82.7579H96.3745C95.6167 82.7579 95.168 82.3365 95.168 81.6268C95.168 80.9191 95.6147 80.4957 96.3745 80.4957H97.8283V82.7579ZM105.965 83.9685C105.965 82.9666 105.279 82.2967 104.216 82.2967H102.674V80.5056H105.612V79.9649H102.066V85.6323H104.214C105.277 85.6303 105.965 84.9624 105.965 83.9685ZM105.356 83.9685C105.356 84.6762 104.918 85.0916 104.158 85.0916H102.672V82.8394H104.158C104.918 82.8374 105.356 83.2509 105.356 83.9685ZM111.265 85.6303L109.181 79.9629H108.671L106.579 85.6303H107.225L107.68 84.3482H110.162L110.617 85.6303H111.265ZM109.987 83.8254H107.863L108.932 80.8336L109.987 83.8254ZM116.255 85.6303V79.9649H115.681L112.791 84.5808V79.9649H112.185V85.6323H112.759L115.649 81.0086V85.6323H116.255V85.6303ZM115.385 78.6032H114.875C114.843 78.9929 114.612 79.1917 114.221 79.1917C113.83 79.1917 113.599 78.9929 113.567 78.6032H113.056C113.104 79.3109 113.559 79.6051 114.223 79.6051C114.883 79.6071 115.337 79.3129 115.385 78.6032ZM118.538 85.6303V82.6784L121.149 85.6303H121.954L119.248 82.6545L121.739 79.9649H120.973L118.538 82.6625V79.9649H117.932V85.6323H118.538V85.6303ZM126.73 85.6303L124.647 79.9649H124.136L122.044 85.6323H122.69L123.145 84.3502H125.628L126.082 85.6323H126.73V85.6303ZM125.452 83.8254H123.328L124.399 80.8336L125.452 83.8254ZM131.409 85.6303V79.9649H128.28V82.2649C128.28 84.6205 127.777 85.0896 127.075 85.0896H126.924V85.6303H127.211C128.298 85.6303 128.872 84.8352 128.872 82.4458V80.5036H130.805V85.6284H131.409V85.6303ZM136.943 83.9685C136.943 82.9666 136.249 82.2967 135.186 82.2967H133.66V79.9649H133.054V85.6323H135.186C136.239 85.6303 136.943 84.9624 136.943 83.9685ZM136.327 83.9685C136.327 84.6762 135.888 85.0916 135.128 85.0916H133.658V82.8394H135.128C135.888 82.8374 136.327 83.2509 136.327 83.9685ZM141.829 83.9923H141.222C141.071 84.6841 140.568 85.1393 139.856 85.1393C139.482 85.1393 139.123 84.9962 138.875 84.7418C138.516 84.376 138.476 83.9864 138.476 82.7996C138.476 81.6149 138.516 81.2232 138.875 80.8575C139.123 80.603 139.482 80.4599 139.856 80.4599C140.566 80.4599 141.055 80.9131 141.207 81.6069H141.829C141.637 80.5394 140.879 79.9192 139.856 79.9192C139.298 79.9192 138.786 80.1259 138.403 80.5076C137.868 81.0404 137.868 81.597 137.868 82.7996C137.868 84.0023 137.868 84.5589 138.403 85.0916C138.786 85.4733 139.296 85.68 139.856 85.68C140.869 85.6781 141.645 85.0578 141.829 83.9923ZM143.809 85.6303V82.6784L146.419 85.6303H147.225L144.519 82.6545L147.01 79.9649H146.244L143.809 82.6625V79.9649H143.203V85.6323H143.809V85.6303ZM151.999 85.6303L149.915 79.9629H149.405L147.313 85.6303H147.959L148.414 84.3482H150.896L151.351 85.6303H151.999ZM150.721 83.8254H148.597L149.668 80.8336L150.721 83.8254ZM154.49 83.2986H155.896V85.6303H156.502V79.9649H154.386C153.333 79.9649 152.629 80.6169 152.629 81.6288C152.629 82.4398 153.1 83.0302 153.85 83.2131L152.54 85.6323H153.25L154.49 83.2986ZM155.896 82.7579H154.442C153.684 82.7579 153.238 82.3365 153.238 81.6268C153.238 80.9191 153.684 80.4957 154.442 80.4957H155.896V82.7579ZM164.04 84.0798C164.04 83.6504 163.897 83.3006 163.618 83.0282C163.482 82.8931 163.378 82.8294 163.115 82.7181C163.33 82.6227 163.418 82.575 163.538 82.4557C163.809 82.2013 163.953 81.8594 163.953 81.4538C163.953 80.5633 163.283 79.9649 162.275 79.9649H160.136V85.6323H162.347C163.4 85.6303 164.04 85.0419 164.04 84.0798ZM163.344 81.4856C163.344 82.1059 162.93 82.4716 162.226 82.4716H160.74V80.5056H162.226C162.93 80.5056 163.344 80.8714 163.344 81.4856ZM163.432 84.048C163.432 84.6841 162.993 85.0916 162.291 85.0916H160.742V83.0143H162.291C162.993 83.0123 163.432 83.4099 163.432 84.048ZM169.229 82.408C169.229 81.7162 169.189 80.9986 168.695 80.5056C168.312 80.124 167.801 79.9172 167.241 79.9172C166.683 79.9172 166.17 80.124 165.787 80.5056C165.301 80.9907 165.253 81.6824 165.253 82.3603V82.7976C165.253 83.9287 165.269 84.5728 165.787 85.0896C166.17 85.4713 166.675 85.6781 167.241 85.6781C167.807 85.6781 168.312 85.4713 168.695 85.0896C169.213 84.5728 169.229 83.9267 169.229 82.7976V82.408ZM168.621 83.0759C168.621 83.728 168.613 84.3422 168.222 84.7318C167.959 84.9942 167.616 85.1374 167.239 85.1374C166.864 85.1374 166.521 84.9942 166.258 84.7318C165.891 84.3661 165.859 83.8095 165.859 83.1952V82.6307C165.859 81.8514 165.859 81.261 166.258 80.8634C166.521 80.601 166.872 80.4579 167.239 80.4579C167.606 80.4579 167.957 80.601 168.222 80.8634C168.597 81.2372 168.621 81.8276 168.621 82.4955V83.0759ZM169.883 85.0896V87H170.482V85.6303H174.291V87H174.889V85.0896H174.211V79.9649H171.106V81.8753C171.106 83.2588 170.906 84.2786 170.388 85.0896H169.883ZM171.066 85.0896C171.521 84.2945 171.68 83.2986 171.68 82.249V80.5056H173.605V85.0896H171.066ZM180 85.6303L177.916 79.9629H177.406L175.314 85.6303H175.96L176.414 84.3482H178.897L179.352 85.6303H180ZM178.722 83.8254H176.598L177.669 80.8336L178.722 83.8254Z" fill="white"/>
</g>
<defs>
<clipPath id="clip0">
<rect width="129" height="39" fill="white" transform="translate(51 48)"/>
</clipPath>
</defs>
</svg>

<svg width="230" height="133" fill="none" xmlns="http://www.w3.org/2000/svg"><g clip-path="url(#clip0)" fill="#fff"><path fill-rule="evenodd" clip-rule="evenodd" d="M67.293 66.229c0-3.413-2.445-5.326-6.848-5.326h-2.108v10.84c.3.076 1.73.414 3.085.414 3.727-.002 5.87-2.14 5.87-5.928zm-8.956-7.164h1.617c3.462 0 5.72-1.388 5.72-4.614.001-3.038-1.618-4.463-5.08-4.463-.79 0-2.106.262-2.257.3v8.777zm-4.364-4.352c0-4.387-.528-5.775-2.973-6.675V48h9.257c6.81 0 9.858 2.137 9.858 6.34 0 2.663-2.106 4.724-5.343 5.213 3.913.15 7 2.55 7 6.64 0 4.763-3.576 7.351-8.392 7.914-.903.113-1.807.15-2.822.15h-6.585V54.714zm29.767-1.537l-3.575 10.878h7.263l-3.65-10.878h-.039zm12.228 21.08h-4.854l-2.86-7.952h-8.805l-2.748 7.952h-3.047l7.261-20.292c.415-1.088.716-2.402.716-3.227 0-1.425-.716-2.212-2.22-2.7V48h6.773l9.784 26.256zm6.624-19.543c0-4.39-.789-5.777-3.236-6.677V48h7.602v26.256h-4.366V54.713zm13.661 0c0-4.39-.79-5.777-3.237-6.677V48h7.602v12.903L131.341 48h3.538l-8.392 9.902 10.085 16.354h-5.381l-7.713-13.277-2.862 3.6v9.677h-4.365V54.713h.002zm31.833-1.537l-3.573 10.878h7.263l-3.65-10.878h-.04zm12.229 21.08h-4.854l-2.86-7.952h-8.804l-2.748 7.952h-3.047l7.263-20.292c.412-1.088.714-2.402.714-3.227 0-1.425-.714-2.212-2.22-2.7V48h6.772l9.784 26.256zm5.123 0V54.715c0-4.39-.789-5.777-3.236-6.677V48h7.602v23.854c.225 0 1.429.3 2.634.3h1.129c4.628 0 5.795-1.612 6.397-3.45h.038v5.552h-14.564z"/><path d="M174.6 54.031h.492v-.62h2.884v-.845l-2.95-2.202h-.426v2.216h-1.695v.831h1.695v.62zm.494-3.017l2.166 1.566h-2.166v-1.566zm2.529 5.373c0 .562-.311.853-.834.853-.644 0-.971-.362-.971-1.134v-.145h-.405c0 .974-.093 1.56-.883 1.56-.862 0-1.247-.657-1.247-1.79v-.595h-.376v.593c0 1.805.572 2.666 1.629 2.666.76 0 1.188-.62 1.172-1.438h.008c.058.672.639 1.133 1.153 1.133.834 0 1.197-.614 1.197-1.566 0-.42-.152-.968-.333-1.314h-.682v.014c.317.31.572.78.572 1.163zm-4.812 4.65c0 1.407 1.334 1.856 2.826 1.856 1.433 0 2.427-.556 2.427-1.857 0-1.308-.994-1.862-2.427-1.862-1.492 0-2.826.455-2.826 1.862zm4.848 0c0 .671-.812.974-2.036.974-1.217 0-2.405-.146-2.405-.975 0-.837 1.188-.982 2.405-.982 1.224 0 2.036.305 2.036.982zm-1.059 4.015v-1.38h-.008c-.074.368-.319.5-.602.456l-3.087-.456v.477l2.839.398v.008l-2.839 1.213v.433l2.839 1.234v.008l-2.839.354v.859l3.695-.535v-1.33h-.008c-.052.209-.168.324-.297.324a.714.714 0 01-.275-.05l-2.065-.894v-.008l2.647-1.111zM57.39 80.506v-.541h-3.417v5.667h.607v-5.124h2.81v-.002zm4.51 5.124v-5.665h-3.128v2.3c0 2.356-.503 2.825-1.207 2.825h-.152v.54h.288c1.084 0 1.66-.795 1.66-3.184v-1.942h1.933v5.124h.606v.002zm5.11-5.665h-.647l-1.382 3.352-1.533-3.352h-.646l1.876 4.027-.231.533c-.168.39-.359.565-.75.565h-.359v.54h.495c.566 0 .893-.365 1.119-.884l2.058-4.781zm4.792 4.004c0-1.002-.686-1.672-1.75-1.672h-1.54v-1.791h2.937v-.541h-3.544v5.667h2.148c1.06-.002 1.749-.67 1.749-1.663zm-.609 0c0 .707-.438 1.123-1.198 1.123h-1.486v-2.253h1.486c.76-.002 1.198.412 1.198 1.13zm6.021 1.661v-5.665h-.574l-2.89 4.616v-4.616h-.606v5.667h.574l2.89-4.623v4.623h.606v-.002zm5.556 0v-5.665h-.606v2.538h-2.698v-2.538h-.607v5.667h.607v-2.586h2.698v2.586h.606v-.002zm5.558 0v-5.665h-.606v2.538h-2.7v-2.538h-.607v5.667h.606v-2.586h2.699v2.586h.608v-.002zm5.603 0l-2.083-5.667h-.51l-2.093 5.667h.646l.455-1.282h2.483l.454 1.282h.648zm-1.276-1.805h-2.124l1.07-2.991 1.054 2.991zm3.767-.526h1.406v2.331h.606v-5.665H96.32c-1.053 0-1.757.652-1.757 1.664 0 .81.47 1.401 1.222 1.584l-1.31 2.42h.71l1.238-2.334zm1.406-.541h-1.454c-.757 0-1.206-.421-1.206-1.131 0-.708.447-1.131 1.206-1.131h1.454v2.262zm8.137 1.21c0-1.001-.686-1.671-1.749-1.671h-1.542v-1.791h2.938v-.541h-3.546v5.667h2.148c1.063-.002 1.751-.67 1.751-1.663zm-.609 0c0 .708-.438 1.124-1.198 1.124h-1.486v-2.253h1.486c.76-.002 1.198.412 1.198 1.13zm5.909 1.662l-2.084-5.667h-.51l-2.092 5.667h.646l.455-1.282h2.482l.455 1.282h.648zm-1.278-1.805h-2.124l1.069-2.991 1.055 2.991zm6.268 1.805v-5.665h-.574l-2.89 4.616v-4.616h-.606v5.667h.574l2.89-4.623v4.623h.606v-.002zm-.87-7.027h-.51c-.032.39-.263.589-.654.589s-.622-.2-.654-.589h-.511c.048.708.503 1.002 1.167 1.002.66.002 1.114-.292 1.162-1.002zm3.153 7.027v-2.952l2.611 2.952h.805l-2.706-2.975 2.491-2.69h-.766l-2.435 2.697v-2.697h-.606v5.667h.606v-.002zm8.192 0l-2.083-5.665h-.511l-2.092 5.667h.646l.455-1.282h2.483l.454 1.282h.648v-.002zm-1.278-1.805h-2.124l1.071-2.991 1.053 2.991zm5.957 1.805v-5.665h-3.129v2.3c0 2.356-.503 2.825-1.205 2.825h-.151v.54h.287c1.087 0 1.661-.795 1.661-3.184v-1.942h1.933v5.124h.604v.002zm5.534-1.661c0-1.002-.694-1.672-1.757-1.672h-1.526v-2.332h-.606v5.667h2.132c1.053-.002 1.757-.67 1.757-1.663zm-.616 0c0 .707-.439 1.123-1.199 1.123h-1.47v-2.253h1.47c.76-.002 1.199.412 1.199 1.13zm5.502.023h-.607c-.151.692-.654 1.147-1.366 1.147-.374 0-.733-.143-.981-.397-.359-.366-.399-.756-.399-1.942 0-1.185.04-1.577.399-1.942a1.37 1.37 0 01.981-.398c.71 0 1.199.453 1.351 1.147h.622c-.192-1.068-.95-1.688-1.973-1.688a2.03 2.03 0 00-1.453.589c-.535.532-.535 1.089-.535 2.292 0 1.202 0 1.759.535 2.292a2.03 2.03 0 001.453.588c1.013-.002 1.789-.622 1.973-1.688zm1.98 1.638v-2.952l2.61 2.952h.806l-2.706-2.975 2.491-2.69h-.766l-2.435 2.697v-2.697h-.606v5.667h.606v-.002zm8.19 0l-2.084-5.667h-.51l-2.092 5.667h.646l.455-1.282h2.482l.455 1.282h.648zm-1.278-1.805h-2.124l1.071-2.991 1.053 2.991zm3.769-.526h1.406v2.331h.606v-5.665h-2.116c-1.053 0-1.757.652-1.757 1.664 0 .81.471 1.401 1.221 1.584l-1.31 2.42h.71l1.24-2.334zm1.406-.541h-1.454c-.758 0-1.204-.421-1.204-1.131 0-.708.446-1.131 1.204-1.131h1.454v2.262zm8.144 1.322c0-.43-.143-.78-.422-1.052-.136-.135-.24-.199-.503-.31.215-.095.303-.143.423-.262a1.33 1.33 0 00.415-1.002c0-.89-.67-1.49-1.678-1.49h-2.139v5.668h2.211c1.053-.002 1.693-.59 1.693-1.552zm-.696-2.594c0 .62-.414.986-1.118.986h-1.486v-1.966h1.486c.704 0 1.118.365 1.118.98zm.088 2.562c0 .636-.439 1.044-1.141 1.044h-1.549v-2.078h1.549c.702-.002 1.141.396 1.141 1.034zm5.797-1.64c0-.692-.04-1.41-.534-1.902a2.03 2.03 0 00-1.454-.589c-.558 0-1.071.207-1.454.589-.486.485-.534 1.176-.534 1.854v.438c0 1.13.016 1.775.534 2.292a2.02 2.02 0 001.454.588 2.02 2.02 0 001.454-.588c.518-.517.534-1.163.534-2.292v-.39zm-.608.668c0 .652-.008 1.266-.399 1.656a1.371 1.371 0 01-.983.405 1.37 1.37 0 01-.981-.405c-.367-.366-.399-.922-.399-1.537v-.564c0-.78 0-1.37.399-1.768a1.392 1.392 0 011.964 0c.375.374.399.965.399 1.633v.58zm1.262 2.014V87h.599v-1.37h3.809V87h.598v-1.91h-.678v-5.125h-3.105v1.91c0 1.384-.2 2.404-.718 3.215h-.505zm1.183 0c.455-.796.614-1.791.614-2.841v-1.743h1.925v4.584h-2.539zm8.934.54l-2.084-5.667h-.51l-2.092 5.667h.646l.454-1.282h2.483l.455 1.282H180zm-1.278-1.805h-2.124l1.071-2.991 1.053 2.991z"/></g><defs><clipPath id="clip0"><path fill="#fff" transform="translate(51 48)" d="M0 0h129v39H0z"/></clipPath></defs></svg>
